design/logos/iespes_logo_e.svg

<svg width="105" height="81" viewBox="0 0 105 81" fill="none" xmlns="http://www.w3.org/2000/svg">
<path d="M17.5 62.5091C11.5 64.0091 8.50003 64.0091 0 63.0092C7.00003 78.0091 15.8275 74.0091 25.5 71.5091C22 69.0091 19.5 65.5091 17.5 62.5091Z" fill="#347144"/>
<path d="M49 49.0091C43.8243 53.0223 39.621 55.6796 33.5 58.0091C36 61.0091 39.5 63.5091 44 65.5091C49.5 64.0091 51.2666 62.6284 55.5 60.0091C58.5887 58.0981 60.3279 56.9691 63 54.5091C65.1356 52.5431 66.2162 51.2991 68 49.0091C69.7306 46.7875 72 43.0091 72 43.0091C72 43.0091 74.5 38.0091 75.5 35.0091C74.5 28.0091 72 21.0091 65 17.5091C65 21.0091 64.9634 23.2045 64 27.0091C62.8417 31.5835 61.5306 34.0263 59 38.0091C55.8866 42.9093 53.5879 45.4517 49 49.0091Z" fill="#347144"/>
<path d="M27.5 49.0091C28.5571 52.8883 29.9283 54.9184 32.5 58.0091C35.8974 62.0922 38.5838 63.9977 43.5 66.0091C57 71.5323 72.5 66.0091 78.5 60.5091C78.5 60.5091 68 78.4535 49 79.5091C23 76.5091 12 59.5091 13 39.0091C16.5001 1.50909 49 0.00910776 49 0.00910776C49 0.00910776 82.5 -1.4909 76 34.0091C74 24.0091 71.6972 20.8211 65 16.5091C48.8298 6.0978 20.9597 25.0091 27.5 49.0091Z" fill="#A0C655"/>
<path d="M105 33.0091C101 59.5091 84 81.0091 51 80.0091C73.5 77.0091 84 55.0091 86 44.0091C86.7273 40.0091 87.213 37.6597 90 35.0091C94.2823 30.9364 105 33.0091 105 33.0091Z" fill="#347144"/>
</svg>

<svg width="105" height="81" fill="none" xmlns="http://www.w3.org/2000/svg"><path d="M17.5 62.51c-6 1.5-9 1.5-17.5.5 7 15 15.828 11 25.5 8.5-3.5-2.5-6-6-8-9ZM49 49.01c-5.176 4.012-9.379 6.67-15.5 9 2.5 3 6 5.5 10.5 7.5 5.5-1.5 7.267-2.882 11.5-5.5 3.089-1.912 4.828-3.04 7.5-5.5 2.136-1.967 3.216-3.21 5-5.5 1.73-2.222 4-6 4-6s2.5-5 3.5-8c-1-7-3.5-14-10.5-17.5 0 3.5-.037 5.694-1 9.5-1.158 4.573-2.47 7.016-5 11-3.113 4.9-5.412 7.442-10 11Z" fill="#347144"/><path d="M27.5 49.01c1.057 3.878 2.428 5.908 5 9 3.397 4.082 6.084 5.988 11 8 13.5 5.522 29 0 35-5.5 0 0-10.5 17.944-29.5 19-26-3-37-20-36-40.5 3.5-37.5 36-39 36-39s33.5-1.5 27 34c-2-10-4.303-13.189-11-17.5-16.17-10.412-44.04 8.5-37.5 32.5Z" fill="#A0C655"/><path d="M105 33.01c-4 26.5-21 48-54 47 22.5-3 33-25 35-36 .727-4 1.213-6.35 4-9 4.282-4.074 15-2 15-2Z" fill="#347144"/></svg>
